sprite_icons/repeat.svg

<svg xmlns="http://www.w3.org/2000/svg" width="16" height="16" viewBox="0 0 16 16">
  <path fill="#000000" d="M11.3753614,4.42296966 C10.4615471,3.51935683 9.23380914,3 7.92106146,3 C5.19077811,3 2.97744613,5.23857625 2.97744613,8 C2.97744613,10.7614237 5.19077811,13 7.92106146,13 C9.33137709,13 10.6441201,12.4008632 11.5758947,11.3669205 C11.9437363,10.9587454 12.5690907,10.9294498 12.9726628,11.3014869 C13.3762349,11.6735239 13.4052001,12.3060108 13.0373585,12.7141859 C11.7347032,14.1596759 9.89350511,15 7.92106146,15 C4.09866476,15 1,11.8659932 1,8 C1,4.13400675 4.09866476,1 7.92106146,1 C9.83624827,1 11.6265349,1.79243881 12.9195544,3.15824462 L14.1667133,2.13679645 C14.3788961,1.96301442 14.6901938,1.9961063 14.8620161,2.21070923 C14.9326608,2.29894308 14.9715114,2.40886697 14.9721779,2.52240071 L14.9999911,7.26012902 C15.0016122,7.53626652 14.781597,7.76144934 14.5085735,7.76308892 C14.4720671,7.76330815 14.435649,7.7594368 14.3999855,7.75154568 L9.82383011,6.73900086 C9.55710985,6.6799849 9.38819274,6.41345741 9.44654319,6.14369506 C9.47053393,6.03278245 9.53113231,5.9334303 9.61837115,5.86197994 L11.3753614,4.42296966 Z"/>
</svg>

<svg width="16" height="16" viewBox="0 0 16 16" xmlns="http://www.w3.org/2000/svg"><title>icn/repeat</title><path d="M11.375 4.423A4.897 4.897 0 0 0 7.921 3c-2.73 0-4.944 2.239-4.944 5s2.214 5 4.944 5c1.41 0 2.723-.6 3.655-1.633a.98.98 0 0 1 1.397-.066c.403.373.432 1.005.064 1.413A6.87 6.87 0 0 1 7.921 15C4.1 15 1 11.866 1 8s3.099-7 6.921-7c1.915 0 3.706.792 4.999 2.158l1.247-1.021a.49.49 0 0 1 .695.074c.07.088.11.198.11.311L15 7.26a.497.497 0 0 1-.6.492L9.824 6.739a.5.5 0 0 1-.206-.877l1.757-1.439z" fill="#000" fill-rule="nonzero"/></svg>
